paymentMethods/binance.svg

<svg width="128" height="64" viewBox="0 0 128 64" fill="none" xmlns="http://www.w3.org/2000/svg">
<rect width="128" height="64" rx="6" fill="white"/>
<path d="M13.0947 30.1508L17.5992 25.6425L22.1074 30.1508L24.7287 27.5294L17.5992 20.3999L10.4734 27.5257L13.0947 30.1508Z" fill="#F3BA2F"/>
<path d="M8.62054 29.3803L6 32.0009L8.62054 34.6214L11.2411 32.0009L8.62054 29.3803Z" fill="#F3BA2F"/>
<path d="M13.0947 33.8529L17.5991 38.3574L22.1074 33.8492L24.7287 36.4705L17.5991 43.6L10.4734 36.4743L10.4696 36.4705L13.0947 33.8529Z" fill="#F3BA2F"/>
<path d="M26.5761 29.3785L23.9556 31.999L26.5761 34.6196L29.1966 31.999L26.5761 29.3785Z" fill="#F3BA2F"/>
<path d="M20.2581 32L17.5992 29.3372L15.6332 31.3032L15.4072 31.5292L14.9402 31.9962L14.9364 32L14.9402 32.0037L17.5992 34.6627L20.2581 32H20.2619H20.2581Z" fill="#F3BA2F"/>
<path d="M33.2856 26.0229H38.9878C40.4039 26.0229 41.4748 26.3857 42.2004 27.1113C42.4757 27.3839 42.6923 27.71 42.8368 28.0695C42.9812 28.429 43.0505 28.8143 43.0403 29.2016V29.2393C43.0459 29.5541 43.0027 29.8679 42.9122 30.1695C42.8269 30.427 42.7092 30.6725 42.562 30.9002C42.4189 31.1118 42.2479 31.3031 42.0535 31.4689C41.8645 31.6328 41.6572 31.7743 41.4358 31.8907C42.0769 32.1151 42.6535 32.4927 43.1156 32.9905C43.5498 33.5346 43.7671 34.2202 43.7257 34.915V34.9489C43.7388 35.46 43.6276 35.9666 43.4018 36.4253C43.1851 36.8493 42.8652 37.2119 42.4716 37.4799C42.0326 37.778 41.5423 37.9926 41.0253 38.1126C40.4086 38.2598 39.7762 38.3306 39.1422 38.3235H33.2856V26.0229ZM38.4191 30.9944C38.9121 31.0185 39.4029 30.9133 39.8427 30.6893C40.0143 30.5889 40.1546 30.4427 40.2477 30.2671C40.3408 30.0915 40.3832 29.8934 40.37 29.695V29.6611C40.3789 29.4786 40.3418 29.2967 40.2622 29.1322C40.1826 28.9677 40.0629 28.8258 39.9143 28.7195C39.5185 28.479 39.0583 28.366 38.5961 28.3956H35.922V30.9944H38.4191ZM39.1422 35.9508C39.6329 35.9782 40.1213 35.8659 40.5508 35.6269C40.7131 35.5193 40.8449 35.3715 40.9334 35.198C41.0218 35.0244 41.0638 34.8309 41.0555 34.6363V34.5987C41.0618 34.4097 41.0219 34.2221 40.9392 34.0521C40.8565 33.882 40.7335 33.7348 40.5809 33.6232C40.123 33.3411 39.5883 33.2094 39.0518 33.2466H35.922V35.9508H39.1422Z" fill="#F3BA2F"/>
<path d="M47.1229 26.0229H49.8309V38.3235H47.1229V26.0229Z" fill="#F3BA2F"/>
<path d="M53.9285 26.0229H56.4255L62.1917 33.5968V26.0229H64.8619V38.3235H62.5607L56.6025 30.4934V38.3235H53.9285V26.0229Z" fill="#F3BA2F"/>
<path d="M73.0574 25.9325H75.5507L80.8235 38.3235H77.995L76.8651 35.5666H71.6677L70.5378 38.3235H67.7809L73.0574 25.9325ZM75.9047 33.175L74.2702 29.1865L72.6356 33.175H75.9047Z" fill="#F3BA2F"/>
<path d="M83.7461 26.0229H86.2431L92.0055 33.5968V26.0229H94.6796V38.3235H92.3746L86.4164 30.4934V38.3235H83.7461V26.0229Z" fill="#F3BA2F"/>
<path d="M104.419 38.5344C103.557 38.5428 102.703 38.3762 101.907 38.0448C101.157 37.7324 100.476 37.2755 99.9033 36.7002C99.3337 36.1233 98.8855 35.4382 98.5851 34.6853C98.2657 33.8984 98.1044 33.0563 98.1105 32.2071V32.1732C98.1044 31.3264 98.2657 30.4868 98.5851 29.7025C98.8901 28.9508 99.3377 28.2653 99.9033 27.6838C100.476 27.0948 101.163 26.6284 101.922 26.3129C102.746 25.9709 103.632 25.8005 104.524 25.8119C105.053 25.807 105.58 25.8537 106.099 25.9513C106.541 26.0318 106.974 26.158 107.391 26.3279C107.769 26.4872 108.129 26.6867 108.464 26.923C108.787 27.1579 109.092 27.4173 109.375 27.6988L107.654 29.6837C107.213 29.2791 106.719 28.9358 106.185 28.663C105.662 28.4095 105.087 28.2806 104.506 28.2864C104.023 28.2831 103.544 28.3821 103.102 28.5768C102.66 28.7716 102.264 29.0576 101.941 29.4163C101.615 29.7722 101.36 30.1862 101.188 30.6365C101.011 31.1125 100.922 31.6165 100.924 32.1242V32.1581C100.92 32.6721 101.009 33.1825 101.188 33.6646C101.352 34.117 101.6 34.5347 101.918 34.8962C102.241 35.2575 102.638 35.5453 103.082 35.7402C103.526 35.9351 104.006 36.0326 104.491 36.0261C105.107 36.0478 105.72 35.9185 106.276 35.6494C106.802 35.3616 107.29 35.0072 107.726 34.5949L109.447 36.3349C109.143 36.6631 108.814 36.9678 108.464 37.2463C108.116 37.5216 107.736 37.7555 107.334 37.9431C106.92 38.1457 106.484 38.2999 106.035 38.4026C105.502 38.5005 104.961 38.5447 104.419 38.5344V38.5344Z" fill="#F3BA2F"/>
<path d="M112.648 26.0229H121.913V28.4295H115.322V30.9266H121.122V33.3332H115.322V35.9169H122V38.3235H112.648V26.0229Z" fill="#F3BA2F"/>
</svg>

<svg xmlns="http://www.w3.org/2000/svg" width="128" height="64" fill="none"><rect width="128" height="64" fill="#fff" rx="6"/><path fill="#F3BA2F" d="m13.095 30.15 4.504-4.508 4.508 4.509 2.622-2.622-7.13-7.13-7.126 7.127 2.622 2.625ZM8.62 29.38 6 32l2.62 2.621 2.621-2.62-2.62-2.62ZM13.095 33.853l4.504 4.504 4.508-4.508 2.622 2.622-7.13 7.129-7.126-7.126-.003-.003 2.625-2.618ZM26.576 29.378 23.956 32l2.62 2.62 2.62-2.62-2.62-2.62Z"/><path fill="#F3BA2F" d="M20.258 32 17.6 29.337l-1.966 1.966-.226.226-.467.467-.004.004.004.004 2.66 2.659L20.257 32h.004-.004ZM33.286 26.023h5.702c1.416 0 2.487.363 3.212 1.088a2.838 2.838 0 0 1 .84 2.09v.038c.006.315-.037.629-.128.93a3.199 3.199 0 0 1-.35.731 2.834 2.834 0 0 1-.508.569 3.254 3.254 0 0 1-.618.422 4.173 4.173 0 0 1 1.68 1.1c.434.544.651 1.23.61 1.924v.034a3.16 3.16 0 0 1-.324 1.476 2.839 2.839 0 0 1-.93 1.055c-.44.298-.93.513-1.447.633a7.737 7.737 0 0 1-1.883.21h-5.856v-12.3Zm5.133 4.971c.493.024.984-.08 1.424-.305a1.07 1.07 0 0 0 .527-.994v-.034a1.092 1.092 0 0 0-.456-.942 2.26 2.26 0 0 0-1.318-.323h-2.674v2.598h2.497Zm.723 4.957c.49.027.98-.085 1.409-.324a1.131 1.131 0 0 0 .505-.99v-.038a1.16 1.16 0 0 0-.475-.976 2.576 2.576 0 0 0-1.53-.376h-3.129v2.704h3.22ZM47.123 26.023h2.708v12.3h-2.708v-12.3ZM53.928 26.023h2.498l5.766 7.574v-7.574h2.67v12.3H62.56l-5.959-7.83v7.83H53.93v-12.3ZM73.057 25.933h2.494l5.272 12.39h-2.828l-1.13-2.756h-5.197l-1.13 2.757H67.78l5.276-12.391Zm2.848 7.242-1.635-3.988-1.634 3.988h3.269ZM83.746 26.023h2.497l5.763 7.574v-7.574h2.674v12.3h-2.305l-5.959-7.83v7.83h-2.67v-12.3ZM104.419 38.534a6.372 6.372 0 0 1-2.512-.49 6.18 6.18 0 0 1-2.004-1.344 6.069 6.069 0 0 1-1.318-2.015 6.466 6.466 0 0 1-.474-2.478v-.034a6.428 6.428 0 0 1 .474-2.47 6.283 6.283 0 0 1 1.318-2.02 6.06 6.06 0 0 1 2.019-1.37 6.57 6.57 0 0 1 2.602-.501 8.111 8.111 0 0 1 1.575.14c.442.08.875.206 1.292.376.378.16.738.359 1.073.595.323.235.628.494.911.776l-1.721 1.985a6.643 6.643 0 0 0-1.469-1.021 3.764 3.764 0 0 0-1.679-.377 3.427 3.427 0 0 0-2.565 1.13c-.326.356-.581.77-.753 1.22a4.22 4.22 0 0 0-.264 1.488v.034a4.232 4.232 0 0 0 .264 1.507c.164.452.412.87.73 1.231a3.388 3.388 0 0 0 2.573 1.13 3.792 3.792 0 0 0 1.785-.377 7.004 7.004 0 0 0 1.45-1.054l1.721 1.74a8.858 8.858 0 0 1-.983.911c-.348.276-.728.51-1.13.697-.414.203-.85.357-1.299.46a8.091 8.091 0 0 1-1.616.131ZM112.648 26.023h9.265v2.407h-6.591v2.497h5.8v2.406h-5.8v2.584H122v2.407h-9.352V26.023Z"/></svg>
